stash_engine/public/demo/images/icon_globe.svg

<svg xmlns="http://www.w3.org/2000/svg" xmlns:xlink="http://www.w3.org/1999/xlink" width="18.197" height="18.232" viewBox="0 0 18.197 18.232"><defs><path id="a" d="M100-574.964h18.197v18.197H100z"/></defs><clipPath id="b"><use xlink:href="#a" overflow="visible"/></clipPath><path clip-path="url(#b)" fill="#5D7E95" d="M116.575-571.155a9.107 9.107 0 0 0-7.448-3.864h-.021l-.032.001a9.107 9.107 0 0 0-7.397 3.863 9.065 9.065 0 0 0-1.677 5.262c0 1.958.622 3.773 1.677 5.261a9.117 9.117 0 0 0 7.397 3.863l.031.001.007-.001.015.001a9.112 9.112 0 0 0 7.448-3.864 9.068 9.068 0 0 0 1.676-5.261 9.062 9.062 0 0 0-1.676-5.262zm-10.117-2.678c-.837.81-1.536 1.993-2.015 3.412a8.69 8.69 0 0 1-1.724-.857 8.403 8.403 0 0 1 3.739-2.555zm-4.178 3.127a9.722 9.722 0 0 0 1.948.982 14.608 14.608 0 0 0-.498 3.753h-2.979a8.329 8.329 0 0 1 1.529-4.735zm-1.501 5.483h2.965c.049 1.121.22 2.185.484 3.158a9.643 9.643 0 0 0-1.948.983 8.31 8.31 0 0 1-1.501-4.141zm1.944 4.712a8.778 8.778 0 0 1 1.719-.856c.48 1.42 1.178 2.604 2.017 3.412a8.388 8.388 0 0 1-3.736-2.556zm6.029 2.967c-1.537-.21-2.863-1.786-3.613-4.055a13.791 13.791 0 0 1 3.613-.554v4.609zm0-5.357a14.305 14.305 0 0 0-3.824.598 13.93 13.93 0 0 1-.434-2.92h4.258v2.322zm0-3.069h-4.272c.005-1.258.17-2.446.451-3.514 1.152.353 2.448.565 3.821.598v2.916zm0-3.664a13.854 13.854 0 0 1-3.612-.554c.751-2.269 2.077-3.845 3.612-4.057v4.611zm8.748 3.664h-3.021a14.555 14.555 0 0 0-.496-3.739 9.5 9.5 0 0 0 1.989-.996 8.325 8.325 0 0 1 1.528 4.735zm-1.969-5.307a8.81 8.81 0 0 1-1.761.87c-.484-1.438-1.192-2.636-2.044-3.448a8.38 8.38 0 0 1 3.805 2.578zm-6.031-2.962c1.521.235 2.83 1.81 3.572 4.062a13.803 13.803 0 0 1-3.572.543v-4.605zm0 5.353a14.261 14.261 0 0 0 3.781-.585c.279 1.064.441 2.249.449 3.501h-4.23v-2.916zm0 3.663h4.214a13.98 13.98 0 0 1-.43 2.907 14.341 14.341 0 0 0-3.782-.587v-2.32h-.002zm0 7.673v-4.604c1.289.031 2.501.223 3.576.543-.746 2.253-2.055 3.827-3.576 4.061zm2.227-.382c.852-.812 1.562-2.007 2.046-3.448a8.72 8.72 0 0 1 1.757.87 8.423 8.423 0 0 1-3.803 2.578zm4.245-3.15a9.601 9.601 0 0 0-1.989-.998 14.21 14.21 0 0 0 .48-3.143h3.01a8.3 8.3 0 0 1-1.501 4.141zm0 0"/><defs><path id="c" d="M0 .035h18.197v18.197H0z"/></defs><clipPath id="d"><use xlink:href="#c" overflow="visible"/></clipPath><path clip-path="url(#d)" fill="#5D7E95" d="M16.575 3.845A9.11 9.11 0 0 0 9.127-.02h-.021l-.032.002a9.107 9.107 0 0 0-7.397 3.862A9.067 9.067 0 0 0 0 9.106c0 1.958.622 3.772 1.677 5.261a9.114 9.114 0 0 0 7.397 3.863l.031.002.007-.002.015.002a9.106 9.106 0 0 0 7.448-3.865 9.066 9.066 0 0 0 1.676-5.261c0-1.96-.621-3.773-1.676-5.261zM6.458 1.166c-.837.811-1.536 1.994-2.015 3.412a8.69 8.69 0 0 1-1.724-.857 8.42 8.42 0 0 1 3.739-2.555zM2.28 4.295a9.667 9.667 0 0 0 1.948.981 14.608 14.608 0 0 0-.498 3.753H.751A8.325 8.325 0 0 1 2.28 4.295zM.779 9.777h2.965c.049 1.121.22 2.185.484 3.157a9.591 9.591 0 0 0-1.948.983 8.3 8.3 0 0 1-1.501-4.14zm1.944 4.711a8.833 8.833 0 0 1 1.719-.855c.48 1.42 1.178 2.604 2.017 3.412a8.39 8.39 0 0 1-3.736-2.557zm6.029 2.967c-1.537-.21-2.863-1.785-3.613-4.055a13.791 13.791 0 0 1 3.613-.554v4.609zm0-5.355a14.226 14.226 0 0 0-3.824.598 13.94 13.94 0 0 1-.434-2.92h4.258V12.1zm0-3.071H4.479a14.09 14.09 0 0 1 .451-3.514c1.153.354 2.449.565 3.822.598v2.916zm0-3.664a13.813 13.813 0 0 1-3.612-.553C5.891 2.542 7.217.966 8.752.755v4.61zM17.5 9.029h-3.021a14.548 14.548 0 0 0-.496-3.738 9.5 9.5 0 0 0 1.989-.996A8.33 8.33 0 0 1 17.5 9.029zm-1.969-5.306a8.809 8.809 0 0 1-1.761.869c-.484-1.438-1.192-2.636-2.044-3.447a8.38 8.38 0 0 1 3.805 2.578zM9.5.761c1.521.235 2.83 1.81 3.572 4.062a13.762 13.762 0 0 1-3.572.542V.761zm0 5.352a14.22 14.22 0 0 0 3.781-.585c.279 1.064.441 2.249.449 3.501H9.5V6.113zm0 3.664h4.214a13.96 13.96 0 0 1-.43 2.906 14.342 14.342 0 0 0-3.782-.586v-2.32H9.5zm0 7.673v-4.604a13.72 13.72 0 0 1 3.576.543c-.746 2.253-2.055 3.828-3.576 4.061zm2.227-.382c.852-.812 1.562-2.008 2.046-3.448a8.72 8.72 0 0 1 1.757.87 8.415 8.415 0 0 1-3.803 2.578zm4.245-3.15a9.552 9.552 0 0 0-1.989-.998 14.21 14.21 0 0 0 .48-3.143h3.01a8.297 8.297 0 0 1-1.501 4.141zm0 0"/></svg>

<?xml version="1.0" encoding="utf-8"?>
<!-- Generator: Adobe Illustrator 16.0.0, SVG Export Plug-In . SVG Version: 6.00 Build 0)  -->
<!DOCTYPE svg PUBLIC "-//W3C//DTD SVG 1.1//EN" "http://www.w3.org/Graphics/SVG/1.1/DTD/svg11.dtd">
<svg version="1.1" id="Layer_1" xmlns="http://www.w3.org/2000/svg" xmlns:xlink="http://www.w3.org/1999/xlink" x="0px" y="0px"
	 width="18.197px" height="18.232px" viewBox="0 0 18.197 18.232" enable-background="new 0 0 18.197 18.232" xml:space="preserve">
<g>
	<defs>
		<rect id="SVGID_1_" x="100" y="-574.964" width="18.197" height="18.197"/>
	</defs>
	<clipPath id="SVGID_2_">
		<use xlink:href="#SVGID_1_"  overflow="visible"/>
	</clipPath>
	<path clip-path="url(#SVGID_2_)" fill="#5D7E95" d="M116.575-571.155c-0.14-0.197-0.283-0.388-0.438-0.572
		c-1.676-2.011-4.196-3.292-7.01-3.292h-0.011h-0.01c-0.013,0-0.023,0.001-0.032,0.001c-2.796,0.015-5.293,1.294-6.959,3.291
		c-0.153,0.185-0.3,0.375-0.438,0.572c-1.055,1.488-1.677,3.302-1.677,5.262c0,1.958,0.622,3.773,1.677,5.261
		c0.139,0.196,0.285,0.388,0.438,0.572c1.666,1.996,4.163,3.274,6.959,3.291c0.009,0,0.02,0.001,0.031,0.001l0.007-0.001
		l0.015,0.001c2.813,0,5.334-1.282,7.01-3.292c0.153-0.185,0.299-0.376,0.438-0.572c1.055-1.488,1.676-3.304,1.676-5.261
		C118.251-567.854,117.63-569.667,116.575-571.155L116.575-571.155z M106.458-573.833c-0.837,0.81-1.536,1.993-2.015,3.412
		c-0.646-0.24-1.223-0.53-1.724-0.857C103.699-572.442,104.988-573.338,106.458-573.833L106.458-573.833z M102.28-570.706
		c0.568,0.378,1.225,0.709,1.948,0.982c-0.312,1.144-0.491,2.413-0.498,3.753h-2.979
		C100.768-567.733,101.333-569.363,102.28-570.706L102.28-570.706z M100.779-565.223h2.965c0.049,1.121,0.22,2.185,0.484,3.158
		c-0.726,0.274-1.382,0.605-1.948,0.983C101.441-562.272,100.9-563.689,100.779-565.223L100.779-565.223z M102.723-560.511
		c0.499-0.326,1.076-0.615,1.719-0.856c0.48,1.42,1.178,2.604,2.017,3.412C104.988-558.451,103.701-559.347,102.723-560.511
		L102.723-560.511z M108.752-557.544c-1.537-0.21-2.863-1.786-3.613-4.055c1.083-0.325,2.31-0.523,3.613-0.554V-557.544z
		 M108.752-562.901c-1.374,0.033-2.671,0.245-3.824,0.598c-0.236-0.896-0.388-1.881-0.434-2.92h4.258V-562.901z M108.752-565.97
		h-4.272c0.005-1.258,0.17-2.446,0.451-3.514c1.152,0.353,2.448,0.565,3.821,0.598V-565.97z M108.752-569.634
		c-1.304-0.033-2.53-0.229-3.612-0.554c0.751-2.269,2.077-3.845,3.612-4.057V-569.634z M117.5-565.97h-3.021
		c-0.006-1.335-0.186-2.598-0.496-3.739c0.742-0.274,1.412-0.61,1.989-0.996C116.918-569.362,117.484-567.733,117.5-565.97
		L117.5-565.97z M115.531-571.277c-0.51,0.333-1.103,0.627-1.761,0.87c-0.484-1.438-1.192-2.636-2.044-3.448
		C113.226-573.365,114.537-572.459,115.531-571.277L115.531-571.277z M109.5-574.239c1.521,0.235,2.83,1.81,3.572,4.062
		c-1.071,0.318-2.285,0.512-3.572,0.543V-574.239z M109.5-568.886c1.358-0.031,2.639-0.24,3.781-0.585
		c0.279,1.064,0.441,2.249,0.449,3.501h-4.23V-568.886z M109.5-565.223h4.214c-0.046,1.033-0.196,2.013-0.43,2.907
		c-1.145-0.346-2.426-0.554-3.782-0.587v-2.32H109.5z M109.5-557.55v-4.604c1.289,0.031,2.501,0.223,3.576,0.543
		C112.33-559.358,111.021-557.784,109.5-557.55L109.5-557.55z M111.727-557.932c0.852-0.812,1.562-2.007,2.046-3.448
		c0.656,0.243,1.249,0.536,1.757,0.87C114.535-559.331,113.226-558.424,111.727-557.932L111.727-557.932z M115.972-561.082
		c-0.577-0.386-1.247-0.722-1.989-0.998c0.264-0.969,0.434-2.027,0.48-3.143h3.01C117.352-563.689,116.812-562.272,115.972-561.082
		L115.972-561.082z M115.972-561.082"/>
</g>
<g>
	<defs>
		<rect id="SVGID_3_" y="0.035" width="18.197" height="18.197"/>
	</defs>
	<clipPath id="SVGID_4_">
		<use xlink:href="#SVGID_3_"  overflow="visible"/>
	</clipPath>
	<path clip-path="url(#SVGID_4_)" fill="#5D7E95" d="M16.575,3.845c-0.14-0.197-0.283-0.388-0.438-0.572
		C14.461,1.262,11.94-0.02,9.127-0.02H9.116h-0.01c-0.013,0-0.023,0.002-0.032,0.002c-2.796,0.014-5.293,1.294-6.959,3.29
		c-0.153,0.185-0.3,0.375-0.438,0.572C0.622,5.333,0,7.146,0,9.106c0,1.958,0.622,3.772,1.677,5.261
		c0.139,0.196,0.285,0.389,0.438,0.572c1.666,1.996,4.163,3.275,6.959,3.291c0.009,0,0.02,0.002,0.031,0.002l0.007-0.002
		l0.015,0.002c2.813,0,5.334-1.281,7.01-3.293c0.153-0.184,0.299-0.376,0.438-0.572c1.055-1.488,1.676-3.303,1.676-5.261
		C18.251,7.146,17.63,5.333,16.575,3.845L16.575,3.845z M6.458,1.166C5.621,1.977,4.922,3.16,4.443,4.578
		c-0.646-0.24-1.223-0.53-1.724-0.857C3.699,2.558,4.988,1.662,6.458,1.166L6.458,1.166z M2.28,4.295
		c0.568,0.378,1.225,0.709,1.948,0.981C3.916,6.42,3.737,7.689,3.73,9.029H0.751C0.768,7.268,1.333,5.637,2.28,4.295L2.28,4.295z
		 M0.779,9.777h2.965c0.049,1.121,0.22,2.185,0.484,3.157c-0.726,0.274-1.382,0.604-1.948,0.983
		C1.441,12.729,0.9,11.311,0.779,9.777L0.779,9.777z M2.723,14.488c0.499-0.325,1.076-0.614,1.719-0.855
		c0.48,1.42,1.178,2.604,2.017,3.412C4.988,16.549,3.701,15.652,2.723,14.488L2.723,14.488z M8.752,17.455
		c-1.537-0.21-2.863-1.785-3.613-4.055c1.083-0.325,2.31-0.523,3.613-0.554V17.455z M8.752,12.1
		c-1.374,0.032-2.671,0.244-3.824,0.598c-0.236-0.896-0.388-1.882-0.434-2.92h4.258V12.1z M8.752,9.029H4.479
		c0.005-1.258,0.17-2.445,0.451-3.514C6.083,5.869,7.379,6.08,8.752,6.113V9.029z M8.752,5.365C7.448,5.333,6.222,5.137,5.14,4.812
		c0.751-2.27,2.077-3.846,3.612-4.057V5.365z M17.5,9.029h-3.021c-0.006-1.334-0.186-2.598-0.496-3.738
		c0.742-0.274,1.412-0.61,1.989-0.996C16.918,5.639,17.484,7.268,17.5,9.029L17.5,9.029z M15.531,3.723
		c-0.51,0.332-1.103,0.627-1.761,0.869c-0.484-1.438-1.192-2.636-2.044-3.447C13.226,1.635,14.537,2.541,15.531,3.723L15.531,3.723z
		 M9.5,0.761c1.521,0.235,2.83,1.81,3.572,4.062C12.001,5.141,10.787,5.335,9.5,5.365V0.761z M9.5,6.113
		c1.358-0.031,2.639-0.239,3.781-0.585c0.279,1.064,0.441,2.249,0.449,3.501H9.5V6.113z M9.5,9.777h4.214
		c-0.046,1.033-0.196,2.013-0.43,2.906c-1.145-0.346-2.426-0.553-3.782-0.586v-2.32H9.5z M9.5,17.45v-4.604
		c1.289,0.03,2.501,0.223,3.576,0.543C12.33,15.642,11.021,17.217,9.5,17.45L9.5,17.45z M11.727,17.068
		c0.852-0.812,1.562-2.008,2.046-3.448c0.656,0.243,1.249,0.536,1.757,0.87C14.535,15.67,13.226,16.576,11.727,17.068L11.727,17.068
		z M15.972,13.918c-0.577-0.386-1.247-0.723-1.989-0.998c0.264-0.969,0.434-2.027,0.48-3.143h3.01
		C17.352,11.311,16.812,12.729,15.972,13.918L15.972,13.918z M15.972,13.918"/>
</g>
</svg>
